web/packages/design/src/ResourceIcon/assets/panther-light.svg

<svg width="72" height="72" viewBox="0 0 72 72" fill="none" xmlns="http://www.w3.org/2000/svg">
<path d="M71.7166 13.7966L65.8837 24.5913C65.7593 24.8169 65.7126 25.0734 65.7515 25.3302L67.8747 41.2111C67.9756 41.9577 67.6491 42.7043 67.0269 43.1321L54.9412 51.578C54.7545 51.7104 54.6144 51.8814 54.5212 52.0913L48.5873 65.8336C48.2528 66.6037 47.545 67.1479 46.7129 67.2725L36.4782 68.7657C36.1671 68.8123 35.856 68.8123 35.5449 68.7657L25.3102 67.2725C24.478 67.1479 23.7703 66.6037 23.4358 65.8336L17.5019 52.0913C17.4164 51.8814 17.2686 51.7104 17.0819 51.578L4.99623 43.1398C4.37405 42.7043 4.04742 41.9655 4.14853 41.2189L6.27168 25.3379C6.30279 25.0814 6.25613 24.8246 6.13947 24.599L0.291048 13.7966C0.0810655 13.4 -0.0200376 12.9489 0.00329392 12.4978L0.283273 7.76932C0.337711 6.89828 0.843226 6.12835 1.62872 5.7395L4.95735 4.09073C5.89838 3.6241 7.0183 3.67854 7.91268 4.2385L15.3865 8.91257C15.6821 9.09923 16.0476 9.1459 16.382 9.04479L35.0628 3.3519C35.6772 3.16525 36.3304 3.16525 36.9448 3.3519L55.6255 9.04479C55.96 9.1459 56.3255 9.09923 56.6211 8.91257L64.0948 4.2385C64.9893 3.67854 66.1093 3.6241 67.0503 4.09073L70.371 5.7395C71.1487 6.12835 71.662 6.89828 71.7166 7.76932L71.9965 12.4978C72.0197 12.9489 71.9265 13.4 71.7086 13.7966H71.7166Z" fill="black"/>
</svg>

<svg xmlns="http://www.w3.org/2000/svg" width="72" height="72" fill="none" viewBox="0 0 72 72"><path fill="#000" d="M71.717 13.797 65.884 24.59a1.16 1.16 0 0 0-.133.74l2.124 15.88a2.01 2.01 0 0 1-.848 1.921L54.94 51.578a1.23 1.23 0 0 0-.42.513l-5.934 13.743a2.44 2.44 0 0 1-1.874 1.438l-10.235 1.494a3.1 3.1 0 0 1-.933 0L25.31 67.272a2.44 2.44 0 0 1-1.874-1.438L17.502 52.09a1.2 1.2 0 0 0-.42-.513L4.996 43.14a2.01 2.01 0 0 1-.847-1.921l2.123-15.881a1.27 1.27 0 0 0-.133-.739L.291 13.797a2.5 2.5 0 0 1-.288-1.3l.28-4.728A2.42 2.42 0 0 1 1.63 5.74l3.328-1.648a3.03 3.03 0 0 1 2.956.147l7.474 4.675c.295.186.66.233.995.132l18.68-5.693a3.23 3.23 0 0 1 1.883 0l18.68 5.693c.335.1.7.054.996-.132l7.474-4.674a3.03 3.03 0 0 1 2.955-.148l3.321 1.648a2.44 2.44 0 0 1 1.346 2.03l.28 4.729c.023.45-.07.902-.288 1.299z"/></svg>
